X:506
T:MacFarlane's Rant
R:Reel
B:The Athole Collection
M:C|
L:1/8
K:D
e|fA A/A/A edBe|fA A/A/A e2de|fA A/A/A edBg|aefd e2d:|
|:e|fdfd edBe|eded e2de|fdfd edBg|aefd e2d:|

